X: 43
T: Humpty Dumpty
C: Elliott
Q: "Allegretto."
%R: air, jig
B: "The Everyday Song Book", 1927
F: http://www.library.pitt.edu/happybirthday/pdf/The_Everyday_Song_Book.pdf
Z: 2017 John Chambers <jc:trillian.mit.edu>
M: 6/8
L: 1/8
K: E
% - - - - - - - - - - - - - - -
[| .B2 .e .G2 .B | E F G F3 | .A2 .c .F2 .A |
w: Hump-ty Dump-ty sat on a wall, Hump-ty Dump-ty
%
    D G F E3 | G A B c B A | G A B c3 |
w: had a great fall; All the king's horse-es, and all the king's men,
%
    E E E F2 F | G3 A z A | B3- B F G | E2 z z2 z |]
w: Could-n't put Hump-ty Dump-ty to-geth-*er a gain.
% - - - - - - - - - - - - - - -
